!!!COM: Bach, Johann Sebastian
!!!OPR: Joh. Seb. Bachs vierstimmige Choralgesänge
!!!XEN: Four-part Chorales
!!!OTL: 17. Aus meines Herzens Grunde
!!!SCT: BWV 269
!!!SCA: Thematisch-systematisches Verzeichnis der musikalischen Werke Johann Sebastian Bach: Bach-Werke-Verzeichnis (Schmieder)
!!!YOR: Bach Gesellschaft Edition xxxix
!!!ENC: Steven Rasmussen
!!!CDT: 1685/3//-1750/7/28/
!!!OCY: Deutschland
!!!YEC: Copyright (c) 1994, 2000 Center for Computer Assisted Research in the Humanities
!!!YEM: Rights to all derivative editions reserved
!!!YEN: United States of America
**kern	**silbe	**kern	**silbe	**kern	**silbe	**kern	**silbe
*I:[BASSO]	*I:[BASSO]	*I:[TENORE]	*I:[TENORE]	*I:[ALTO]	*I:[ALTO]	*I:[SOPRANO]	*I:[SOPRANO]
*>[A,A,B]	*	*>[A,A,B]	*	*>[A,A,B]	*	*>[A,A,B]	*
*>A	*	*>A	*	*>A	*	*>A	*
*clefF4	*	*clefGv2	*	*clefG2	*	*clefG2	*
*k[f#]	*	*k[f#]	*	*k[f#]	*	*k[f#]	*
*G:	*	*G:	*	*G:	*	*G:	*
*M3/4	*	*M3/4	*	*M3/4	*	*M3/4	*
4GG	.	4B	.	4d	.	4g	Ausin
=1	=1	=1	=1	=1	=1	=1	=1
4G	.	4B	.	4d	.	2g	mei-die-
4E	.	8cL	.	4e	.	.	.
.	.	8BJ	.	.	.	.	.
4F#	.	4A	.	4d	.	4dd	-nes-ser
=2	=2	=2	=2	=2	=2	=2	=2
4G	.	4G	.	2d	.	4.b	Her-Mor-
4D	.	4F#	.	.	.	.	.
.	.	.	.	.	.	8a	.
4E	.	4G	.	4B	.	4g	-zens-gen-
=3	=3	=3	=3	=3	=3	=3	=3
4C	.	8cL	.	8eL	.	4.g	Grun--stun-
.	.	8BJ	.	8d	.	.	.
8BBL	.	4c	.	8e	.	.	.
8AAJ	.	.	.	8f#J	.	8a	.
4GG	.	4d	.	4g	.	4b	.
=4	=4	=4	=4	=4	=4	=4	=4
2D;	.	2d;	.	2f#;	.	2a;	-de-de
4GG	.	4d	.	4g	.	4b	sag'dar-
=5	=5	=5	=5	=5	=5	=5	=5
4FF#	.	4A	.	4d	.	2dd	ich-zu
4GG	.	4B	.	4e	.	.	.
4AA	.	4c	.	4f#	.	4cc	dirmein
=6	=6	=6	=6	=6	=6	=6	=6
(4BB	.	(4d	.	2g	.	4b	LobLe-
4C)	.	4e)	.	.	.	2a	und-be-
4D	.	8dL	.	4f#	.	.	.
.	.	8cJ	.	.	.	.	.
=7	=7	=7	=7	=7	=7	=7	=7
2GG;	.	2B;	.	2d;	.	2g;	Dank,-lang,
=:|!	=:|!	=:|!	=:|!	=:|!	=:|!	=:|!	=:|!
*>B	*	*>B	*	*>B	*	*>B	*
4GG	.	4d	.	4g	.	4b	o
=8	=8	=8	=8	=8	=8	=8	=8
4GG	.	4d	.	8gL	.	4b	Gott
.	.	.	.	8f#	.	.	.
4AA	.	4c	.	8e	.	4cc	.
.	.	.	.	8f#J	.	.	.
4BB	.	8BL	.	4g	.	4dd	in
.	.	8AJ	.	.	.	.	.
=9	=9	=9	=9	=9	=9	=9	=9
4.BB	.	8BL	.	8gL	.	4.dd	dei-
.	.	8cJ	.	8a	.	.	.
.	.	4d	.	8g	.	.	.
8AA	.	.	.	8f#J	.	8cc	.
4GG	.	4d	.	4g	.	4b	-nem
=10	=10	=10	=10	=10	=10	=10	=10
2D;	.	2d;	.	2f#;	.	2a;	Thron,
[4E	dir	4B	.	4e	.	4g	dir
=11	=11	=11	=11	=11	=11	=11	=11
4E]	.	4G	.	4e	.	2b	zu
4D	zu	4B	.	8f#L	.	.	.
.	.	.	.	8gJ	.	.	.
4C	Lob,	4e	.	4a	.	4cc	Lob,
=12	=12	=12	=12	=12	=12	=12	=12
(4.BB	.	2d	.	(4a	.	2dd	preis
.	.	.	.	4.g)	.	.	.
8C)	.	.	.	.	.	.	.
4D	.	4d	.	.	.	4cc	und
.	.	.	.	8f#	.	.	.
=13	=13	=13	=13	=13	=13	=13	=13
8GGL	.	2.d	.	2g	.	2.b	Eh-
8AAJ	.	.	.	.	.	.	.
4BB	.	.	.	.	.	.	.
4GG	.	.	.	4fn	.	.	.
=14	=14	=14	=14	=14	=14	=14	=14
2C;	.	2c;	.	2e;	.	2g;	-ren,
4GG	.	4d	.	4g	.	4b	durch
=15	=15	=15	=15	=15	=15	=15	=15
4FF#	.	8dL	.	4.a	.	2dd	Chri-
.	.	8cJ	.	.	.	.	.
4GG	.	4B	.	.	.	.	.
.	.	.	.	8g	.	.	.
4AA	.	4c	.	4f#	.	4cc	-stum,
=16	=16	=16	=16	=16	=16	=16	=16
4BB	.	2d	un-	2g	un-	2b	un-
4GG	.	.	.	.	.	.	.
4D	.	8dL	-sern	[4f#	-sern	4a	-sern
.	.	8cJ	.	.	.	.	.
=17	=17	=17	=17	=17	=17	=17	=17
8EL	.	4B	Her-	8f#L]	.	4.g	Her-
8D	.	.	.	8eJ	.	.	.
8C	.	4c	.	8eL	Her-	.	.
8BB	.	.	.	8f#J	.	8a	.
8AA	.	4d	.	4g	.	4b	.
8GGJ	.	.	.	.	.	.	.
=18	=18	=18	=18	=18	=18	=18	=18
2D;	.	2d;	-ren,	2f#;	-ren,	2a;	-ren,
4G	.	4d	.	4g	.	4b	dein'
=19	=19	=19	=19	=19	=19	=19	=19
4G	.	2d	.	2a	.	2dd	ein-
4F#	.	.	.	.	.	.	.
4E	.	4e	.	8gL	.	4cc	-ge-
.	.	.	.	8f#J	.	.	.
=20	=20	=20	=20	=20	=20	=20	=20
8EL	.	2e	.	2g	.	4b	-bor-
8DJ	.	.	.	.	.	.	.
4C	.	.	.	.	.	2a	-nen
4D	.	8dL	.	4f#	.	.	.
.	.	8cJ	.	.	.	.	.
=21	=21	=21	=21	=21	=21	=21	=21
2GG;	.	2B;	.	2d;	.	2g;	Sohn.
==|!	==|!	==|!	==|!	==|!	==|!	==|!	==|!
*-	*-	*-	*-	*-	*-	*-	*-
!!!RWG: Key is interpreted using the Humdrum key tool.
!!!URL-pdf: https://s9.imslp.org/files/imglnks/usimg/6/6b/IMSLP24489-PMLP09471-CCARH_Bach_Chorales.pdf#page=11 Musedata edition
!!!URL-pdf: https://s9.imslp.org/files/imglnks/usimg/7/7a/IMSLP04155-Bach_-_BGA_253-438.pdf#page=10 	Bach-Gesellschaft Ausgabe, Band 39 (pp.175-276) Leipzig: Breitkopf und Härtel, 1892. Plate B.W. XXXIX.
!!!END: 1994/05/06
!!!EMD: Converted from MuseData to Humdrum Dec 19, 2000, by Andreas Kornstaedt using muse2kern.
!!!EED: Craig Stuart Sapp
!!!EEV: 2024/03/31
!!!filter-keyboard: satb2gs
